scalable/apps/org.libreoffice.LibreOffice.svg

<?xml version="1.0" encoding="UTF-8" standalone="no"?>
<!-- Created with Inkscape (http://www.inkscape.org/) -->

<svg
   width="128"
   height="128"
   viewBox="0 0 128 128"
   version="1.1"
   id="svg5"
   inkscape:version="1.2.2 (b0a8486541, 2022-12-01)"
   sodipodi:docname="org.libreoffice.LibreOffice.svg"
   xmlns:inkscape="http://www.inkscape.org/namespaces/inkscape"
   xmlns:sodipodi="http://sodipodi.sourceforge.net/DTD/sodipodi-0.dtd"
   xmlns:xlink="http://www.w3.org/1999/xlink"
   xmlns="http://www.w3.org/2000/svg"
   xmlns:svg="http://www.w3.org/2000/svg">
  <sodipodi:namedview
     id="namedview7"
     pagecolor="#ffffff"
     bordercolor="#666666"
     borderopacity="1"
     inkscape:pageshadow="2"
     inkscape:pageopacity="0.0"
     inkscape:pagecheckerboard="true"
     inkscape:document-units="px"
     showgrid="false"
     inkscape:showpageshadow="false"
     showborder="true"
     inkscape:snap-page="true"
     inkscape:zoom="5.4655157"
     inkscape:cx="99.533152"
     inkscape:cy="35.678244"
     inkscape:window-width="1366"
     inkscape:window-height="731"
     inkscape:window-x="0"
     inkscape:window-y="0"
     inkscape:window-maximized="1"
     inkscape:current-layer="layer2"
     inkscape:snap-global="true"
     inkscape:deskcolor="#d1d1d1" />
  <defs
     id="defs2">
    <linearGradient
       inkscape:collect="always"
       id="linearGradient502">
      <stop
         style="stop-color:#ffdd55;stop-opacity:1"
         offset="0"
         id="stop496" />
      <stop
         style="stop-color:#ffff91;stop-opacity:0;"
         offset="1"
         id="stop500" />
    </linearGradient>
    <linearGradient
       inkscape:collect="always"
       id="linearGradient635">
      <stop
         style="stop-color:#ff5555;stop-opacity:1"
         offset="0"
         id="stop631" />
      <stop
         style="stop-color:#ff2a7f;stop-opacity:1"
         offset="0.59346157"
         id="stop726" />
      <stop
         style="stop-color:#7137c8;stop-opacity:1"
         offset="1"
         id="stop633" />
    </linearGradient>
    <inkscape:path-effect
       effect="fillet_chamfer"
       id="path-effect2725"
       is_visible="true"
       lpeversion="1"
       nodesatellites_param="F,0,0,1,0,4,0,1 @ F,0,0,1,0,4,0,1 @ F,0,0,1,0,4,0,1 @ F,0,0,1,0,4,0,1 @ F,0,0,1,0,4,0,1 @ F,0,0,1,0,4,0,1 @ F,0,0,1,0,4,0,1 @ F,0,0,1,0,4,0,1"
       unit="px"
       method="arc"
       mode="F"
       radius="4"
       chamfer_steps="1"
       flexible="false"
       use_knot_distance="true"
       apply_no_radius="true"
       apply_with_radius="true"
       only_selected="false"
       hide_knots="false" />
    <inkscape:path-effect
       effect="fillet_chamfer"
       id="path-effect2717"
       is_visible="true"
       lpeversion="1"
       nodesatellites_param="F,1,0,1,1,0.04,0,1 @ F,1,0,1,1,0.04,0,1 @ F,1,0,1,1,0.04,0,1 @ F,1,0,1,1,0.04,0,1 @ F,1,0,1,1,0.04,0,1 @ F,1,0,1,1,0.04,0,1 @ F,1,0,1,1,0.04,0,1 @ F,1,0,1,1,0.04,0,1"
       unit="px"
       method="arc"
       mode="F"
       radius="4"
       chamfer_steps="1"
       flexible="true"
       use_knot_distance="true"
       apply_no_radius="true"
       apply_with_radius="true"
       only_selected="false"
       hide_knots="true" />
    <inkscape:path-effect
       effect="fillet_chamfer"
       id="path-effect5370"
       is_visible="true"
       lpeversion="1"
       nodesatellites_param="F,1,0,1,1,0.04,0,1 @ F,1,0,1,1,0.04,0,1 @ F,1,0,1,1,0.04,0,1 @ F,1,0,1,1,0.04,0,1 @ F,1,0,1,1,0.04,0,1 @ F,1,0,1,1,0.04,0,1 @ F,1,0,1,1,0.04,0,1 @ F,1,0,1,1,0.04,0,1"
       unit="px"
       method="arc"
       mode="F"
       radius="4"
       chamfer_steps="1"
       flexible="true"
       use_knot_distance="true"
       apply_no_radius="true"
       apply_with_radius="true"
       only_selected="false"
       hide_knots="true" />
    <inkscape:path-effect
       effect="fillet_chamfer"
       id="path-effect5294"
       is_visible="true"
       lpeversion="1"
       nodesatellites_param="F,1,0,1,1,0.04,0,1 @ F,1,0,1,1,0.04,0,1 @ F,1,0,1,1,0.04,0,1 @ F,1,0,1,1,0.04,0,1 @ F,1,0,1,1,0.04,0,1 @ F,1,0,1,1,0.04,0,1 @ F,1,0,1,1,0.04,0,1 @ F,1,0,1,1,0.04,0,1"
       unit="px"
       method="arc"
       mode="F"
       radius="4"
       chamfer_steps="1"
       flexible="true"
       use_knot_distance="true"
       apply_no_radius="true"
       apply_with_radius="true"
       only_selected="false"
       hide_knots="true" />
    <inkscape:path-effect
       effect="fillet_chamfer"
       id="path-effect5288"
       is_visible="true"
       lpeversion="1"
       nodesatellites_param="F,1,0,1,1,0.04,0,1 @ F,1,0,1,1,0.04,0,1 @ F,1,0,1,1,0.04,0,1 @ F,1,0,1,1,0.04,0,1 @ F,1,0,1,1,0.04,0,1 @ F,1,0,1,1,0.04,0,1 @ F,1,0,1,1,0.04,0,1 @ F,1,0,1,1,0.04,0,1"
       unit="px"
       method="arc"
       mode="F"
       radius="4"
       chamfer_steps="1"
       flexible="true"
       use_knot_distance="true"
       apply_no_radius="true"
       apply_with_radius="true"
       only_selected="false"
       hide_knots="true" />
    <inkscape:path-effect
       effect="fillet_chamfer"
       id="path-effect5286"
       is_visible="true"
       lpeversion="1"
       nodesatellites_param="F,0,0,1,0,0,0,1 @ F,0,0,1,0,0,0,1 @ F,0,0,1,0,0,0,1 @ F,0,0,1,0,0,0,1 @ F,0,0,1,0,0,0,1 @ F,0,0,1,0,0,0,1 @ F,0,0,1,0,0,0,1 @ F,0,0,1,0,0,0,1"
       unit="px"
       method="auto"
       mode="F"
       radius="0"
       chamfer_steps="1"
       flexible="false"
       use_knot_distance="true"
       apply_no_radius="true"
       apply_with_radius="true"
       only_selected="true"
       hide_knots="false" />
    <inkscape:path-effect
       effect="fillet_chamfer"
       id="path-effect5284"
       is_visible="true"
       lpeversion="1"
       nodesatellites_param="F,0,0,1,0,4,0,1 @ F,0,0,1,0,4,0,1 @ F,0,0,1,0,4,0,1 @ F,0,0,1,0,4,0,1"
       unit="px"
       method="auto"
       mode="F"
       radius="4"
       chamfer_steps="1"
       flexible="false"
       use_knot_distance="true"
       apply_no_radius="true"
       apply_with_radius="true"
       only_selected="false"
       hide_knots="false" />
    <inkscape:path-effect
       effect="fillet_chamfer"
       id="path-effect5282"
       is_visible="true"
       lpeversion="1"
       nodesatellites_param="F,0,0,1,0,0,0,1 @ F,0,0,1,0,0,0,1 @ F,0,0,1,0,0,0,1 @ F,0,0,1,0,0,0,1"
       unit="px"
       method="auto"
       mode="F"
       radius="0"
       chamfer_steps="1"
       flexible="false"
       use_knot_distance="true"
       apply_no_radius="true"
       apply_with_radius="true"
       only_selected="true"
       hide_knots="false" />
    <linearGradient
       y2="236"
       x2="96"
       y1="236"
       x1="32"
       gradientTransform="translate(604.81684,170.58641)"
       gradientUnits="userSpaceOnUse"
       id="linearGradient1099"
       xlink:href="#linearGradient1036" />
    <linearGradient
       id="linearGradient1036">
      <stop
         id="stop1032"
         offset="0"
         style="stop-color:#d5d3cf;stop-opacity:1;" />
      <stop
         id="stop1034"
         offset="1"
         style="stop-color:#f6f5f4;stop-opacity:1" />
    </linearGradient>
    <radialGradient
       r="32"
       fy="-76"
       fx="-244"
       cy="-76"
       cx="-244"
       gradientTransform="matrix(0.88333331,0,0,0.88333331,-460.35018,463.11973)"
       gradientUnits="userSpaceOnUse"
       id="radialGradient1103"
       xlink:href="#linearGradient1069" />
    <linearGradient
       id="linearGradient1069">
      <stop
         id="stop1065"
         offset="0"
         style="stop-color:#d5d3cf;stop-opacity:1" />
      <stop
         id="stop1067-1"
         offset="1"
         style="stop-color:#949390;stop-opacity:1" />
    </linearGradient>
    <linearGradient
       gradientUnits="userSpaceOnUse"
       y2="232"
       x2="64"
       y1="262.5"
       x1="64"
       id="linearGradient1027"
       xlink:href="#linearGradient1025"
       gradientTransform="translate(-470.5864,432.81685)" />
    <linearGradient
       id="linearGradient1025">
      <stop
         id="stop1021"
         offset="0"
         style="stop-color:#9a9996;stop-opacity:1" />
      <stop
         id="stop1023"
         offset="1"
         style="stop-color:#77767b;stop-opacity:1" />
    </linearGradient>
    <inkscape:path-effect
       effect="spiro"
       id="path-effect35304-9"
       is_visible="true" />
    <clipPath
       clipPathUnits="userSpaceOnUse"
       id="clipPath1609-7">
      <path
         sodipodi:nodetypes="cccccc"
         inkscape:connector-curvature="0"
         id="path1611-5"
         d="m 252,116 28,-28 v -8 h -36 v 36 z"
         style="fill:#e74747;stroke:none;stroke-width:0.25px;stroke-linecap:butt;stroke-linejoin:miter;stroke-opacity:1" />
    </clipPath>
    <linearGradient
       inkscape:collect="always"
       id="linearGradient8241">
      <stop
         style="stop-color:#df0056;stop-opacity:1;"
         offset="0"
         id="stop8237" />
      <stop
         style="stop-color:#fe0e6f;stop-opacity:1;"
         offset="0.05"
         id="stop9349" />
      <stop
         style="stop-color:#df0056;stop-opacity:1;"
         offset="0.1"
         id="stop21746" />
      <stop
         style="stop-color:#5b2d9f;stop-opacity:1;"
         offset="0.89999998"
         id="stop21940" />
      <stop
         style="stop-color:#6732b4;stop-opacity:1;"
         offset="0.94999999"
         id="stop9351" />
      <stop
         style="stop-color:#5d2ca0;stop-opacity:1;"
         offset="1"
         id="stop8239" />
    </linearGradient>
    <radialGradient
       r="32"
       fy="-76"
       fx="-244"
       cy="-76"
       cx="-244"
       gradientTransform="matrix(0.88333331,0,0,0.88333331,-460.35018,463.11973)"
       gradientUnits="userSpaceOnUse"
       id="radialGradient1103-5"
       xlink:href="#linearGradient1069" />
    <inkscape:path-effect
       effect="spiro"
       id="path-effect35304-9-2"
       is_visible="true" />
    <clipPath
       clipPathUnits="userSpaceOnUse"
       id="clipPath1609-7-7">
      <path
         sodipodi:nodetypes="cccccc"
         inkscape:connector-curvature="0"
         id="path1611-5-0"
         d="m 252,116 28,-28 v -8 h -36 v 36 z"
         style="fill:#e74747;stroke:none;stroke-width:0.25px;stroke-linecap:butt;stroke-linejoin:miter;stroke-opacity:1" />
    </clipPath>
    <clipPath
       clipPathUnits="userSpaceOnUse"
       id="clipPath744">
      <rect
         style="fill:#1e88e5;fill-opacity:1;stroke-width:0.264583"
         id="rect746"
         width="541.86664"
         height="541.86664"
         x="0"
         y="1.5987212e-14"
         rx="79.375"
         ry="79.375" />
    </clipPath>
    <clipPath
       clipPathUnits="userSpaceOnUse"
       id="clipPath62">
      <rect
         style="fill:#1e88e5;fill-opacity:1;stroke-width:0.264583"
         id="rect64"
         width="541.86664"
         height="541.86664"
         x="2.2507105e-05"
         y="-0.42205024"
         rx="79.375"
         ry="79.375" />
    </clipPath>
    <linearGradient
       inkscape:collect="always"
       xlink:href="#linearGradient8241"
       id="linearGradient8243"
       x1="11.5"
       y1="120.5"
       x2="116.5"
       y2="120.5"
       gradientUnits="userSpaceOnUse"
       gradientTransform="matrix(0.82688879,0,0,1,11.079114,-1)" />
    <radialGradient
       r="32"
       fy="-76"
       fx="-244"
       cy="-76"
       cx="-244"
       gradientTransform="matrix(0.88333331,0,0,0.88333331,-460.35018,463.11973)"
       gradientUnits="userSpaceOnUse"
       id="radialGradient1103-6"
       xlink:href="#linearGradient1069" />
    <inkscape:path-effect
       effect="spiro"
       id="path-effect35304-9-20"
       is_visible="true" />
    <clipPath
       clipPathUnits="userSpaceOnUse"
       id="clipPath1609-7-2">
      <path
         sodipodi:nodetypes="cccccc"
         inkscape:connector-curvature="0"
         id="path1611-5-3"
         d="m 252,116 28,-28 v -8 h -36 v 36 z"
         style="fill:#e74747;stroke:none;stroke-width:0.25px;stroke-linecap:butt;stroke-linejoin:miter;stroke-opacity:1" />
    </clipPath>
    <clipPath
       clipPathUnits="userSpaceOnUse"
       id="clipPath966">
      <rect
         style="fill:#999999;fill-opacity:1;stroke-width:0.264583"
         id="rect968"
         width="541.86664"
         height="541.86664"
         x="0"
         y="-2.8421709e-14"
         rx="79.375"
         ry="79.375" />
    </clipPath>
    <clipPath
       clipPathUnits="userSpaceOnUse"
       id="clipPath402">
      <rect
         style="fill:#999999;fill-opacity:1;stroke-width:0.264583"
         id="rect404"
         width="541.86664"
         height="541.86664"
         x="1.5908203e-05"
         y="1.5908203e-05"
         rx="79.375"
         ry="79.375" />
    </clipPath>
    <clipPath
       clipPathUnits="userSpaceOnUse"
       id="clipPath2739">
      <rect
         style="fill:#999999;fill-opacity:1;stroke-width:0.264583"
         id="rect2741"
         width="541.86664"
         height="541.86664"
         x="-7.8515623e-06"
         y="1.8626168"
         rx="79.375"
         ry="79.375" />
    </clipPath>
    <linearGradient
       inkscape:collect="always"
       xlink:href="#linearGradient635"
       id="linearGradient637"
       x1="25.944691"
       y1="14.836528"
       x2="102.37579"
       y2="103.0847"
       gradientUnits="userSpaceOnUse" />
    <radialGradient
       inkscape:collect="always"
       xlink:href="#linearGradient502"
       id="radialGradient430"
       cx="99.385208"
       cy="25.929338"
       fx="99.385208"
       fy="25.929338"
       r="43.484032"
       gradientTransform="matrix(1,0,0,1.257793,0,-14.361605)"
       gradientUnits="userSpaceOnUse" />
  </defs>
  <g
     inkscape:groupmode="layer"
     id="layer2"
     inkscape:label="Layer 1">
    <path
       id="rect440"
       style="fill:url(#linearGradient8243);fill-opacity:1;stroke-width:0.909334"
       d="M 20.587891,65.210938 V 111.5 c 0,4.432 3.568008,8 8,8 h 70.824218 c 4.431991,0 8.000001,-3.568 8.000001,-8 V 65.210938 Z" />
    <path
       id="rect388"
       style="fill:url(#linearGradient637);fill-opacity:1;stroke-width:0.909334"
       d="M 29.115234 8.5 A 16.39117 16.39117 0 0 0 28.060547 8.5175781 C 25.090849 8.709115 22.573103 10.506071 21.361328 13.054688 A 16.010351 16.010351 0 0 0 21.314453 13.263672 C 20.927328 14.119591 20.66913 15.046169 20.605469 16.033203 A 16.391196 16.391196 0 0 0 20.597656 16.449219 A 16.010351 16.010351 0 0 0 20.587891 20.060547 L 20.587891 102.00195 A 16.010361 16.010361 0 0 0 20.597656 105.61133 A 16.391196 16.391196 0 0 0 20.605469 106.02734 C 20.669152 107.01472 20.927093 107.94267 21.314453 108.79883 A 16.010361 16.010361 0 0 0 21.361328 109.00586 C 22.573102 111.55448 25.090848 113.35338 28.060547 113.54492 A 16.391187 16.391187 0 0 0 29.115234 113.56055 L 69.554688 113.56055 A 4.121107 4.121107 0 0 0 69.859375 113.5 L 98.884766 113.5 A 16.391155 16.391155 0 0 0 99.939453 113.48242 C 103.30155 113.26557 106.08477 110.99157 107.04883 107.89844 A 16.097574 16.097574 0 0 0 107.41211 103.06641 L 107.41211 75.367188 L 107.41211 46.693359 L 107.41211 18.996094 A 16.097573 16.097573 0 0 0 107.04883 14.164062 C 106.08477 11.070929 103.30155 8.7949706 99.939453 8.578125 A 16.391156 16.391156 0 0 0 98.884766 8.5605469 L 69.857422 8.5605469 A 4.1211068 4.1211068 0 0 0 69.554688 8.5 L 29.115234 8.5 z " />
    <path
       id="path368"
       style="fill:url(#radialGradient430);fill-opacity:1;stroke-width:0.909334"
       d="m 29.115234,8.5 a 16.39117,16.39117 0 0 0 -1.054687,0.017578 c -2.969698,0.191537 -5.487444,1.988493 -6.699219,4.53711 a 16.010351,16.010351 0 0 0 -0.04687,0.208984 c -0.387125,0.855919 -0.645323,1.782497 -0.708984,2.769531 a 16.391196,16.391196 0 0 0 -0.0078,0.416016 16.010351,16.010351 0 0 0 -0.0098,3.611328 v 81.941403 a 16.010361,16.010361 0 0 0 0.0098,3.60938 16.391196,16.391196 0 0 0 0.0078,0.41601 c 0.06368,0.98738 0.321624,1.91533 0.708984,2.77149 a 16.010361,16.010361 0 0 0 0.04687,0.20703 c 1.211774,2.54862 3.72952,4.34752 6.699219,4.53906 a 16.391187,16.391187 0 0 0 1.054687,0.0156 H 69.554688 A 4.121107,4.121107 0 0 0 69.859375,113.5 H 98.88477 a 16.391155,16.391155 0 0 0 1.05468,-0.0176 c 3.3621,-0.21685 6.14532,-2.49085 7.10938,-5.58398 a 16.097574,16.097574 0 0 0 0.36328,-4.83203 V 75.367188 46.693359 18.996094 a 16.097573,16.097573 0 0 0 -0.36328,-4.832032 C 106.08477,11.070929 103.30155,8.7949706 99.93945,8.578125 A 16.391156,16.391156 0 0 0 98.88477,8.560547 H 69.857422 A 4.1211068,4.1211068 0 0 0 69.554688,8.5 Z" />
    <path
       id="path5290"
       style="fill:#f0e7ff;fill-opacity:1;stroke-width:0.7405"
       d="M 35.587891 18.253906 A 13.347857 13.347857 0 0 0 34.728516 18.267578 C 32.31024 18.42355 30.258291 19.887531 29.271484 21.962891 A 13.037451 13.037451 0 0 0 28.642578 26.773438 A 13.037451 13.037451 0 0 0 28.642578 29.666016 L 28.642578 96.814453 L 28.642578 98.814453 A 13.347897 13.347897 0 0 0 28.65625 99.673828 C 28.825563 102.29896 30.537534 104.48933 32.898438 105.35742 A 13.078718 13.078718 0 0 0 37.464844 105.75781 L 92.402344 105.75781 A 13.347877 13.347877 0 0 0 93.261719 105.74414 C 95.999538 105.56756 98.26568 103.71409 99.050781 101.19531 A 13.108327 13.108327 0 0 0 99.347656 97.261719 L 99.347656 97.240234 A 13.108327 13.108327 0 0 0 99.347656 95.261719 L 99.347656 51.355469 L 99.347656 49.355469 A 4.0200998 4.0200998 0 0 0 98.169922 46.511719 L 70.890625 19.236328 A 3.3559491 3.3559491 0 0 0 68.517578 18.253906 L 35.587891 18.253906 z " />
    <path
       id="path2720"
       style="fill:#f0e7ff;fill-opacity:1;stroke-width:0.7405"
       d="m 81.051083,21.131161 15.468146,15.468146 a 1.6568542,1.6568542 157.5 0 0 2.828427,-1.171573 v -2.628906 a 79.163609,79.163609 90 0 1 0,-5.978516 v -0.02148 c -0.296875,-3.933594 -0.296875,-3.933594 -0.296875,-3.933594 a 6.9867737,6.9867737 16.921967 0 0 -6.648437,-4.5625 H 82.222656 a 1.6568542,1.6568542 112.5 0 0 -1.171573,2.828427 z"
       inkscape:path-effect="#path-effect2725"
       inkscape:original-d="M 78.222656 18.302734 L 99.347656 39.427734 L 99.347656 28.798828 A 13.108327 13.108327 0 0 0 99.347656 26.820312 L 99.347656 26.798828 A 13.108327 13.108327 0 0 0 99.050781 22.865234 C 98.265681 20.346457 95.999535 18.492986 93.261719 18.316406 A 13.347877 13.347877 0 0 0 92.402344 18.302734 L 78.222656 18.302734 z " />
    <path
       id="path375"
       style="fill:#ffffff;fill-opacity:0.3995291;stroke-width:0.909334"
       d="m 29.115234,8.5 a 16.39117,16.39117 0 0 0 -1.054687,0.017578 c -2.969695,0.1915367 -5.487445,1.988495 -6.699219,4.53711 a 16.010351,16.010351 0 0 0 -0.04687,0.208984 c -0.387124,0.855918 -0.645323,1.782498 -0.708984,2.769531 a 16.391196,16.391196 0 0 0 -0.0078,0.416016 16.010351,16.010351 0 0 0 -0.0098,3.611328 v 2 a 16.010351,16.010351 0 0 1 0.0098,-3.611328 16.391196,16.391196 0 0 1 0.0078,-0.416016 c 0.06366,-0.987033 0.32186,-1.913613 0.708984,-2.769531 a 16.010351,16.010351 0 0 1 0.04687,-0.208984 c 1.211774,-2.548615 3.729524,-4.345573 6.699219,-4.53711 A 16.39117,16.39117 0 0 1 29.115234,10.5 h 40.439454 a 4.1211068,4.1211068 0 0 1 0.302734,0.06055 H 98.88477 a 16.391156,16.391156 0 0 1 1.05468,0.01758 c 3.3621,0.216846 6.14532,2.492808 7.10938,5.585937 a 16.097573,16.097573 0 0 1 0.3789,2.617188 16.097573,16.097573 0 0 0 -0.3789,-4.617188 C 106.08477,11.070938 103.30155,8.7949754 99.93945,8.57813 A 16.391156,16.391156 0 0 0 98.88477,8.560552 H 69.857422 A 4.1211068,4.1211068 0 0 0 69.554688,8.5 Z m 78.296876,94.56641 v 2 a 16.097574,16.097574 0 0 1 0.0156,0.21093 16.097574,16.097574 0 0 0 -0.0156,-2.21093 z" />
  </g>
</svg>

<svg xmlns="http://www.w3.org/2000/svg" xmlns:xlink="http://www.w3.org/1999/xlink" width="128" height="128" viewBox="0 0 128 128">
    <defs>
        <linearGradient id="c">
            <stop offset="0" style="stop-color:#fd5;stop-opacity:1"/>
            <stop offset="1" style="stop-color:#ffff91;stop-opacity:0"/>
        </linearGradient>
        <linearGradient id="b">
            <stop offset="0" style="stop-color:#f55;stop-opacity:1"/>
            <stop offset=".593" style="stop-color:#ff2a7f;stop-opacity:1"/>
            <stop offset="1" style="stop-color:#7137c8;stop-opacity:1"/>
        </linearGradient>
        <linearGradient id="a">
            <stop offset="0" style="stop-color:#df0056;stop-opacity:1"/>
            <stop offset=".05" style="stop-color:#fe0e6f;stop-opacity:1"/>
            <stop offset=".1" style="stop-color:#df0056;stop-opacity:1"/>
            <stop offset=".9" style="stop-color:#5b2d9f;stop-opacity:1"/>
            <stop offset=".95" style="stop-color:#6732b4;stop-opacity:1"/>
            <stop offset="1" style="stop-color:#5d2ca0;stop-opacity:1"/>
        </linearGradient>
        <linearGradient xlink:href="#a" id="d" x1="11.5" x2="116.5" y1="120.5" y2="120.5" gradientTransform="matrix(.82689 0 0 1 11.08 -1)" gradientUnits="userSpaceOnUse"/>
        <linearGradient xlink:href="#b" id="e" x1="25.945" x2="102.376" y1="14.837" y2="103.085" gradientUnits="userSpaceOnUse"/>
        <radialGradient xlink:href="#c" id="f" cx="99.385" cy="25.929" r="43.484" fx="99.385" fy="25.929" gradientTransform="matrix(1 0 0 1.2578 0 -14.362)" gradientUnits="userSpaceOnUse"/>
    </defs>
    <path d="M20.588 65.21v46.29c0 4.432 3.568 8 8 8h70.824c4.432 0 8-3.568 8-8V65.21Z" style="fill:url(#d);fill-opacity:1;stroke-width:.909334"/>
    <path d="M29.115 8.5a16 16 0 0 0-1.054.018 7.98 7.98 0 0 0-6.7 4.537l-.047.209a8 8 0 0 0-.709 2.77 16 16 0 0 0-.007.415 16 16 0 0 0-.01 3.612V102a16 16 0 0 0 .01 3.61 16 16 0 0 0 .007.416c.064.988.322 1.916.71 2.772l.046.207a7.98 7.98 0 0 0 6.7 4.539 16 16 0 0 0 1.054.016h40.44a4 4 0 0 0 .304-.061h29.026a16 16 0 0 0 1.054-.018 7.98 7.98 0 0 0 7.11-5.584 16.1 16.1 0 0 0 .363-4.832v-84.07a16.1 16.1 0 0 0-.363-4.832 7.98 7.98 0 0 0-7.11-5.586 16 16 0 0 0-1.054-.017H69.857a4 4 0 0 0-.302-.061z" style="fill:url(#e);fill-opacity:1;stroke-width:.909334"/>
    <path d="M29.115 8.5a16 16 0 0 0-1.054.018 7.98 7.98 0 0 0-6.7 4.537l-.047.209a8 8 0 0 0-.709 2.77 16 16 0 0 0-.007.415 16 16 0 0 0-.01 3.612V102a16 16 0 0 0 .01 3.61 16 16 0 0 0 .007.416c.064.988.322 1.916.71 2.772l.046.207a7.98 7.98 0 0 0 6.7 4.539 16 16 0 0 0 1.054.016h40.44a4 4 0 0 0 .304-.061h29.026a16 16 0 0 0 1.054-.018 7.98 7.98 0 0 0 7.11-5.584 16.1 16.1 0 0 0 .363-4.832v-84.07a16.1 16.1 0 0 0-.363-4.832 7.98 7.98 0 0 0-7.11-5.586 16 16 0 0 0-1.054-.017H69.857a4 4 0 0 0-.302-.061Z" style="fill:url(#f);fill-opacity:1;stroke-width:.909334"/>
    <path d="M35.588 18.254a13 13 0 0 0-.86.014 6.5 6.5 0 0 0-5.457 3.695 13 13 0 0 0-.628 4.81 13 13 0 0 0 0 2.893v69.148a13 13 0 0 0 .013.86 6.5 6.5 0 0 0 4.242 5.683 13.1 13.1 0 0 0 4.567.4h54.937a13 13 0 0 0 .86-.013 6.5 6.5 0 0 0 5.789-4.549 13.1 13.1 0 0 0 .297-3.933v-.022a13 13 0 0 0 0-1.978V49.355a4.02 4.02 0 0 0-1.178-2.843L70.89 19.236a3.36 3.36 0 0 0-2.372-.982zm45.463 2.877L96.52 36.6a1.657 1.657 157.5 0 0 2.829-1.171v-2.63a79 79 90 0 1 0-5.978V26.8l-.297-3.934a6.99 6.99 16.922 0 0-6.649-4.562h-10.18a1.657 1.657 112.5 0 0-1.17 2.828" style="fill:#f0e7ff;fill-opacity:1;stroke-width:.7405"/>
    <path d="M29.115 8.5a16 16 0 0 0-1.054.018 7.98 7.98 0 0 0-6.7 4.537l-.047.209a8 8 0 0 0-.709 2.77 16 16 0 0 0-.007.415 16 16 0 0 0-.01 3.612v2a16 16 0 0 1 .01-3.612 16 16 0 0 1 .007-.416 8 8 0 0 1 .71-2.77l.046-.208a7.98 7.98 0 0 1 6.7-4.537 16 16 0 0 1 1.054-.018h40.44a4 4 0 0 1 .302.06h29.028a16 16 0 0 1 1.054.018 7.98 7.98 0 0 1 7.11 5.586 16 16 0 0 1 .379 2.617 16.1 16.1 0 0 0-.38-4.617 7.98 7.98 0 0 0-7.109-5.586 16 16 0 0 0-1.054-.017H69.857a4 4 0 0 0-.302-.061Zm78.297 94.566v2l.016.211a16 16 0 0 0-.016-2.21" style="fill:#fff;fill-opacity:.3995291;stroke-width:.909334"/>
</svg>
